src/images/single-assets/SPS.svg

<svg width="96" height="96" viewBox="0 0 96 96" fill="none" xmlns="http://www.w3.org/2000/svg">
<path d="M48 94.0804C38.886 94.0807 29.9766 91.3783 22.3984 86.315C14.8203 81.2517 8.9138 74.0548 5.42597 65.6346C1.93813 57.2143 1.02559 47.9489 2.80374 39.01C4.58189 30.0711 8.97087 21.8603 15.4156 15.4158C24.0575 6.77393 35.7785 1.91895 48 1.91895C60.2216 1.91895 71.9425 6.77393 80.5844 15.4158C89.2264 24.0578 94.0813 35.7787 94.0813 48.0002C94.0813 60.2218 89.2264 71.9427 80.5844 80.5846C76.315 84.8766 71.2369 88.2793 65.6438 90.5958C60.0508 92.9123 54.0538 94.0967 48 94.0804Z" fill="black"/>
<path d="M79.2259 16.7741C86.4257 23.9825 90.9123 33.4582 91.9256 43.5958C92.939 53.7334 90.4168 63.9097 84.7864 72.4006C79.1559 80.8916 70.7634 87.1751 61.0306 90.1868C51.2978 93.1986 40.8231 92.7532 31.381 88.9263C20.6142 84.458 12.0502 75.9148 7.55576 65.159C3.06131 54.4031 3.00084 42.3066 7.38753 31.5063C11.7742 20.706 20.2524 12.0776 30.974 7.50192C41.6956 2.92623 53.7912 2.77426 64.6244 7.07912C70.0942 9.29571 75.0604 12.5932 79.2259 16.7741ZM81.9412 14.0588C63.1962 -4.68626 32.8038 -4.68626 14.0588 14.0588C-4.68626 32.8038 -4.68626 63.1962 14.0588 81.9412C32.8038 100.686 63.1962 100.686 81.9412 81.9412C100.686 63.1962 100.686 32.8038 81.9412 14.0588Z" fill="url(#paint0_linear)"/>
<path d="M41.8676 60.8543L36.1114 71.8079L35.8062 72.3878H48.0001L41.9041 60.7871L41.8676 60.8543Z" fill="white"/>
<path d="M29.9404 54.3364L29.71 53.626L29.4162 54.5284L25.0251 68.0452C25.8596 69.3747 27.0181 70.4703 28.3921 71.2293C29.766 71.9883 31.3102 72.3858 32.8799 72.3844H35.806L35.6677 71.9562L29.9404 54.3364Z" fill="white"/>
<path d="M54.1325 60.8543L54.096 60.7871L48 72.3878H60.194L59.8887 71.8079L54.1325 60.8543Z" fill="white"/>
<path d="M66.2899 53.6182L66.0595 54.3286L60.3321 71.96L60.1938 72.3881H63.1199C64.6905 72.3885 66.2353 71.9896 67.6093 71.2289C68.9833 70.4681 70.1414 69.3706 70.9747 68.0393L66.5836 54.5282L66.2899 53.6182Z" fill="white"/>
<path d="M41.8676 35.1458L41.9041 35.213L48.0001 23.6123H35.8062L36.1114 24.1921L41.8676 35.1458Z" fill="white"/>
<path d="M54.1325 35.1458L59.8887 24.1921L60.194 23.6123H48L54.096 35.213L54.1325 35.1458Z" fill="white"/>
<path d="M29.71 42.3823L29.9404 41.6719L35.6677 24.0405L35.806 23.6123H32.8799C31.3093 23.6119 29.7645 24.0109 28.3905 24.7716C27.0165 25.5323 25.8584 26.6299 25.0251 27.9611L29.4162 41.4722L29.71 42.3823Z" fill="white"/>
<path d="M66.0595 41.6643L66.2899 42.3747L66.5836 41.4703L70.9747 27.9535C70.14 26.6244 68.9814 25.5291 67.6074 24.7705C66.2335 24.0118 64.6894 23.6146 63.1199 23.6162H60.1938L60.3321 24.0444L66.0595 41.6643Z" fill="white"/>
<defs>
<linearGradient id="paint0_linear" x1="81.9412" y1="14.0588" x2="14.0588" y2="81.9412" gradientUnits="userSpaceOnUse">
<stop stop-color="#FF6A01"/>
<stop offset="1" stop-color="#FFCF01"/>
</linearGradient>
</defs>
</svg>

<svg xmlns="http://www.w3.org/2000/svg" width="96" height="96" fill="none"><path fill="#000" d="M48 94.08a46.08 46.08 0 1 1 32.584-13.495A45.79 45.79 0 0 1 48 94.08"/><path fill="url(#a)" d="M79.226 16.774A44.171 44.171 0 0 1 31.38 88.926 44.172 44.172 0 0 1 64.624 7.08a43.9 43.9 0 0 1 14.602 9.695m2.715-2.715c-18.745-18.745-49.137-18.745-67.882 0s-18.745 49.137 0 67.882 49.137 18.745 67.882 0 18.745-49.137 0-67.882"/><path fill="#fff" d="M41.868 60.854 36.11 71.808l-.305.58H48l-6.096-11.6zM29.94 54.336l-.23-.71-.294.902-4.39 13.517a9.26 9.26 0 0 0 7.854 4.34h2.926l-.138-.429zM54.133 60.854l-.037-.067L48 72.387h12.194l-.305-.58zM66.29 53.618l-.23.71-5.728 17.632-.138.428h2.926a9.26 9.26 0 0 0 7.855-4.349l-4.391-13.51zM41.868 35.146l.036.067L48 23.613H35.806l.305.58zM54.133 35.146l5.756-10.954.305-.58H48l6.096 11.601zM29.71 42.382l.23-.71 5.728-17.631.138-.429H32.88a9.26 9.26 0 0 0-7.855 4.35l4.391 13.51zM66.06 41.664l.23.71.294-.904 4.39-13.516a9.26 9.26 0 0 0-7.854-4.338h-2.926l.138.428z"/><defs><linearGradient id="a" x1="81.941" x2="14.059" y1="14.059" y2="81.941" gradientUnits="userSpaceOnUse"><stop stop-color="#FF6A01"/><stop offset="1" stop-color="#FFCF01"/></linearGradient></defs></svg>
